assets/img/icons/question.svg

<svg fill="none" height="64" viewBox="0 0 64 64" width="64" xmlns="http://www.w3.org/2000/svg"><circle cx="32" cy="32" fill="#fff" r="27" stroke="#000" stroke-width="2"/><path d="m32 54c12.1503 0 22-9.8497 22-22s-9.8497-22-22-22-22 9.8497-22 22 9.8497 22 22 22z" fill="#c4f0f5"/><path d="m31.5647 20c-4.4613 0-7.3061 2.4375-7.5647 6.3438l2.9418.1874c.2586-2.4999 1.8104-4.0312 4.6229-4.0312s4.3965 1.8125 4.3965 4.25c0 2.0625-1.1638 3.2188-2.9095 4.4688-2.1013 1.625-3.1034 3-3.1034 5.1562v.9688h2.9418v-.8438c0-1.875.7758-2.9062 2.6832-4.2812 2.0043-1.4063 3.4267-2.75 3.4267-5.5001 0-3.9375-2.7478-6.7187-7.4353-6.7187zm-.194 20.2813c-1.0345 0-1.9073.8437-1.9073 1.8749 0 1 .8728 1.8438 1.9073 1.8438 1.0668 0 1.9396-.8438 1.9396-1.8438 0-1.0312-.8728-1.8749-1.9396-1.8749z" fill="#000"/></svg>

<svg width="64" height="64" viewBox="0 0 64 64" fill="none" xmlns="http://www.w3.org/2000/svg">
<circle cx="32" cy="32" r="27" fill="white" stroke="black" stroke-width="2"/>
<path d="M32 54C44.1503 54 54 44.1503 54 32C54 19.8497 44.1503 10 32 10C19.8497 10 10 19.8497 10 32C10 44.1503 19.8497 54 32 54Z" fill="#C4F0F5"/>
<path d="M31.5647 20C27.1034 20 24.2586 22.4375 24 26.3438L26.9418 26.5312C27.2004 24.0313 28.7522 22.5 31.5647 22.5C34.3772 22.5 35.9612 24.3125 35.9612 26.75C35.9612 28.8125 34.7974 29.9688 33.0517 31.2188C30.9504 32.8438 29.9483 34.2188 29.9483 36.375V37.3438H32.8901V36.5C32.8901 34.625 33.6659 33.5938 35.5733 32.2188C37.5776 30.8125 39 29.4688 39 26.7187C39 22.7812 36.2522 20 31.5647 20ZM31.3707 40.2813C30.3362 40.2813 29.4634 41.125 29.4634 42.1562C29.4634 43.1562 30.3362 44 31.3707 44C32.4375 44 33.3103 43.1562 33.3103 42.1562C33.3103 41.125 32.4375 40.2813 31.3707 40.2813Z" fill="black"/>
</svg>
